www/assets/icons/volume_off.svg

<svg xmlns="http://www.w3.org/2000/svg" width="24" height="24" viewBox="0 0 24 24" fill='currentColor'><path d="M16.5 12A4.5 4.5 0 0 0 14 7.97v2.21l2.45 2.45c.03-.2.05-.41.05-.63m2.5 0c0 .94-.2 1.82-.54 2.64l1.51 1.51A8.8 8.8 0 0 0 21 12c0-4.28-2.99-7.86-7-8.77v2.06c2.89.86 5 3.54 5 6.71M4.27 3 3 4.27 7.73 9H3v6h4l5 5v-6.73l4.25 4.25c-.67.52-1.42.93-2.25 1.18v2.06a9 9 0 0 0 3.69-1.81L19.73 21 21 19.73zM12 4 9.91 6.09 12 8.18z"/></svg>

<svg width="24" height="24" viewBox="0 0 24 24" xmlns="http://www.w3.org/2000/svg" fill='currentColor'><path d="M16.5 12C16.5 10.23 15.48 8.71 14 7.97V10.18L16.45 12.63C16.48 12.43 16.5 12.22 16.5 12ZM19 12C19 12.94 18.8 13.82 18.46 14.64L19.97 16.15C20.63 14.91 21 13.5 21 12C21 7.72 18.01 4.14 14 3.23V5.29C16.89 6.15 19 8.83 19 12ZM4.27 3L3 4.27L7.73 9H3V15H7L12 20V13.27L16.25 17.52C15.58 18.04 14.83 18.45 14 18.7V20.76C15.38 20.45 16.63 19.81 17.69 18.95L19.73 21L21 19.73L4.27 3ZM12 4L9.91 6.09L12 8.18V4Z"/></svg>
